X:752
T:Sikvikspolskan
R:Polska
O:Gästrikland
S:efter Gustaf Jernberg
N:ingår även i kategorin [[Tonarter/Dm]]
M:3/4
L:1/16
K:Ddor
A4 fefg a3f|f3ee4g3^f/e|d3^c d3e fefg|a4A3G FGFE|
D4 fefg a3f|f2e2e4g3^f/e|d3^c d3e f2g2|g2a2a8|
A4d3^c d3e|f4f3e/f/ (3g2f2e2|d4c3A _B3G|G2F2F8:|
|:F4G3F G3A|_B4B2AGA4|A4G3F G3A|_B4B3A/G/A4|
A4d3^c d3e|f4f2ef (3g2f2e2|d4c3A _B3G|(3GAGF2F8:|
(:musicend:)

(:music:)
